apps/16/power-management.svg

<?xml version="1.0" encoding="UTF-8"?>
<svg id="c" width="16" height="16" version="1.1" xmlns="http://www.w3.org/2000/svg" xmlns:cc="http://creativecommons.org/ns#" xmlns:dc="http://purl.org/dc/elements/1.1/" xmlns:rdf="http://www.w3.org/1999/02/22-rdf-syntax-ns#">
	<metadata id="a">
		<rdf:RDF>
			<cc:Work rdf:about="">
				<dc:format>image/svg+xml</dc:format>
				<dc:type rdf:resource="http://purl.org/dc/dcmitype/StillImage"/>
				<dc:title/>
			</cc:Work>
		</rdf:RDF>
	</metadata>
	<defs>
		<style id="current-color-scheme" type="text/css">.ColorScheme-Text {color:#090d11;}.ColorScheme-Background{color:#ffffff;}</style>
	</defs>
	<path id="d" d="m8 1c-3.866 0-7 3.134-7 7 0 3.5248 2.61 6.419 6 6.9062l1-5.9062h-3zm1 0.09375-1 5.9062h3l-3 8c3.866 0 7-3.134 7-7 0-3.5248-2.61-6.419-6-6.9062z" style="fill-opacity:.75;fill:currentColor" class="ColorScheme-Text"/>
	<path id="b" d="m8-0.125c-4.4922 0-8.125 3.6328-8.125 8.125 0 1.4038 0.34265 2.7225 0.96875 3.875 0.1252 0.2305 0.26005 0.4711 0.40625 0.6875 0.1433 0.206 0.276 0.40205 0.4375 0.59375 0.01 0.011 0.02225 0.02025 0.03125 0.03125 0.1478 0.1736 0.30695 0.3393 0.46875 0.5 0.021 0.021 0.0415 0.0425 0.0625 0.0625 0.132 0.1282 0.26575 0.2557 0.40625 0.375 0.174 0.1479 0.3762 0.3041 0.5625 0.4375 0.1862 0.1334 0.365 0.257 0.5625 0.375 0.7897 0.4722 1.663 0.8072 2.5938 1v0.03125c0.5295 0.1083 1.0635 0.15625 1.625 0.15625 4.4922 0 8.125-3.6328 8.125-8.125 0-1.4038-0.34275-2.7225-0.96875-3.875-0.1253-0.2305-0.26005-0.4711-0.40625-0.6875-0.013-0.019-0.01825-0.0445-0.03125-0.0625-0.1404-0.1984-0.2802-0.3777-0.4375-0.5625-0.1374-0.1665-0.2876-0.31385-0.4375-0.46875-0.031-0.031-0.06175-0.06275-0.09375-0.09375-0.1315-0.1315-0.26615-0.2527-0.40625-0.375-0.1741-0.1479-0.3763-0.3041-0.5625-0.4375-0.1863-0.1334-0.3651-0.257-0.5625-0.375-0.7898-0.4722-1.663-0.8072-2.5938-1v-0.03125c-0.5295-0.1084-1.0635-0.15625-1.625-0.15625zm0 1.125-3 8h3l-1 5.9062c-3.39-0.4873-6-3.3814-6-6.9062 0-3.866 3.134-7 7-7zm1 0.09375c3.39 0.4872 6 3.3814 6 6.9062 0 3.866-3.134 7-7 7l3-8h-3z" style="fill-opacity:.5;fill:currentColor" class="ColorScheme-Background"/>
</svg>

<?xml version="1.0" encoding="UTF-8" standalone="no"?>
<!-- Created with Inkscape (http://www.inkscape.org/) -->

<svg
   xmlns:dc="http://purl.org/dc/elements/1.1/"
   xmlns:cc="http://creativecommons.org/ns#"
   xmlns:rdf="http://www.w3.org/1999/02/22-rdf-syntax-ns#"
   xmlns:svg="http://www.w3.org/2000/svg"
   xmlns="http://www.w3.org/2000/svg"
   xmlns:sodipodi="http://sodipodi.sourceforge.net/DTD/sodipodi-0.dtd"
   xmlns:inkscape="http://www.inkscape.org/namespaces/inkscape"
   width="16"
   height="16"
   id="svg27665"
   version="1.1"
   inkscape:version="0.48.4 r9939"
   sodipodi:docname="power-management.svg">
  <defs
     id="defs27667" />
  <sodipodi:namedview
     id="base"
     pagecolor="#ffffff"
     bordercolor="#666666"
     borderopacity="1.0"
     inkscape:pageopacity="0.0"
     inkscape:pageshadow="2"
     inkscape:zoom="22.4"
     inkscape:cx="7.871002"
     inkscape:cy="7.6814831"
     inkscape:document-units="px"
     inkscape:current-layer="layer1"
     showgrid="true"
     inkscape:window-width="1920"
     inkscape:window-height="1016"
     inkscape:window-x="-5"
     inkscape:window-y="27"
     inkscape:window-maximized="1"
     inkscape:snap-bbox="true"
     inkscape:bbox-paths="true"
     inkscape:bbox-nodes="true"
     inkscape:snap-bbox-edge-midpoints="true"
     inkscape:snap-bbox-midpoints="true"
     inkscape:object-paths="true"
     inkscape:snap-intersection-paths="true"
     inkscape:object-nodes="true"
     inkscape:snap-smooth-nodes="true"
     inkscape:snap-midpoints="true"
     inkscape:snap-object-midpoints="true"
     inkscape:snap-center="true"
     inkscape:snap-global="false"
     showguides="true"
     inkscape:guide-bbox="true"
     fit-margin-top="0"
     fit-margin-left="0"
     fit-margin-right="0"
     fit-margin-bottom="0"
     inkscape:showpageshadow="false"
     inkscape:snap-page="true">
    <inkscape:grid
       type="xygrid"
       id="grid3126"
       empspacing="5"
       visible="true"
       enabled="true"
       snapvisiblegridlinesonly="true"
       originx="1.9507231e-05px"
       originy="25.00001px" />
  </sodipodi:namedview>
  <metadata
     id="metadata27670">
    <rdf:RDF>
      <cc:Work
         rdf:about="">
        <dc:format>image/svg+xml</dc:format>
        <dc:type
           rdf:resource="http://purl.org/dc/dcmitype/StillImage" />
        <dc:title />
      </cc:Work>
    </rdf:RDF>
  </metadata>
  <g
     inkscape:label="Camada 1"
     inkscape:groupmode="layer"
     id="layer1"
     transform="translate(3364.4172,-1859.5163)">
    <path
       style="color:#000000;fill:#27303a;fill-opacity:0.753280819999999968;fill-rule:nonzero;stroke:none;stroke-width:0.051;marker:none;visibility:visible;display:inline;overflow:visible;enable-background:accumulate"
       d="M 8 1 C 4.134 1 1 4.134 1 8 C 1 11.5248 3.61 14.41895 7 14.90625 L 8 9 L 5 9 L 8 1 z M 9 1.09375 L 8 7 L 11 7 L 8 15 C 11.866 15 15 11.866 15 8 C 15 4.4752 12.39 1.58095 9 1.09375 z "
       transform="translate(-3364.4172,1859.5163)"
       id="path3025" />
    <path
       style="font-size:medium;font-style:normal;font-variant:normal;font-weight:normal;font-stretch:normal;text-indent:0;text-align:start;text-decoration:none;line-height:normal;letter-spacing:normal;word-spacing:normal;text-transform:none;direction:ltr;block-progression:tb;writing-mode:lr-tb;text-anchor:start;baseline-shift:baseline;color:#000000;fill:#f1f3f5;fill-opacity:0.90288714000000003;fill-rule:nonzero;stroke:none;stroke-width:0.00260067;marker:none;visibility:visible;display:inline;overflow:visible;enable-background:accumulate;font-family:Sans;-inkscape-font-specification:Sans"
       d="M 8 -0.125 C 3.5078 -0.125 -0.125 3.5078 -0.125 8 C -0.125 9.4038 0.21765 10.7225 0.84375 11.875 C 0.96895 12.1055 1.1038 12.3461 1.25 12.5625 C 1.3933 12.7685 1.526 12.96455 1.6875 13.15625 C 1.6975 13.16725 1.70975 13.1765 1.71875 13.1875 C 1.86655 13.3611 2.0257 13.5268 2.1875 13.6875 C 2.2085 13.7085 2.229 13.73 2.25 13.75 C 2.382 13.8782 2.51575 14.0057 2.65625 14.125 C 2.83025 14.2729 3.03245 14.4291 3.21875 14.5625 C 3.40495 14.6959 3.58375 14.8195 3.78125 14.9375 C 4.57095 15.4097 5.4442 15.7447 6.375 15.9375 L 6.375 15.96875 C 6.9045 16.07705 7.4385 16.125 8 16.125 C 12.4922 16.125 16.125 12.4922 16.125 8 C 16.125 6.5962 15.78225 5.2775 15.15625 4.125 C 15.03095 3.8945 14.8962 3.6539 14.75 3.4375 C 14.737 3.4185 14.73175 3.393 14.71875 3.375 C 14.57835 3.1766 14.43855 2.9973 14.28125 2.8125 C 14.14385 2.646 13.99365 2.49865 13.84375 2.34375 C 13.81275 2.31275 13.782 2.281 13.75 2.25 C 13.6185 2.1185 13.48385 1.9973 13.34375 1.875 C 13.16965 1.7271 12.96745 1.5709 12.78125 1.4375 C 12.59495 1.3041 12.41615 1.1805 12.21875 1.0625 C 11.42895 0.5903 10.5558 0.2553 9.625 0.0625 L 9.625 0.03125 C 9.0955 -0.07715 8.5615 -0.125 8 -0.125 z M 8 1 L 5 9 L 8 9 L 7 14.90625 C 3.61 14.41895 1 11.5248 1 8 C 1 4.134 4.134 1 8 1 z M 9 1.09375 C 12.39 1.58095 15 4.4752 15 8 C 15 11.866 11.866 15 8 15 L 11 7 L 8 7 L 9 1.09375 z "
       transform="translate(-3364.4172,1859.5163)"
       id="path2992" />
  </g>
</svg>
